**kern	**kern
*part1	*part1
*staff2	*staff1
*I"Piano	*
*I'Pno.	*
*clefF4	*clefG2
*k[]	*k[]
*M4/4	*M4/4
=1	=1
2C	2c
2BB	2d
=2	=2
2C	2e
2F	2f
=3	=3
2E	2g
2F	2a-X
=4	=4
2D	2b
4C	4cc
4r	4r
=5||	=5||
1C	2c
.	4d
.	4e
=6	=6
1D	4f
.	4g
.	4a-X
.	4b
=7	=7
2E	2cc
2r	2r
=8||	=8||
1F 1A-X 1c	8cL
.	16dL
.	16eJJ
.	16fLL
.	16g
.	16a-X
.	16bJJ
.	4cc
.	4r
!!linebreak:original
=9||	=9||
1C 1E 1G 1c	8cL
.	16dL
.	16eJJ
.	16fLL
.	16g
.	16a-X
.	16bJJ
.	4cc
.	4r
=10||	=10||
2.C 2.E 2.G 2.c	[8cL
.	24cL]
.	24d
.	24eJJ
.	24fLL
.	24g
.	24a-XJJ
.	24anLL
.	24b-X
.	24bnJJ
.	4cc
4r	4r
==	==
*-	*-
!!!system-decoration: {(s1,s2)}
